X:1
T:Madonna, con due lettre
T:Jhan Gero
T:Source : Trium vocum cantiones---Nürnberg---J.Petreius---1541. Editor : André Vierendeels (20/04/16).
T:Notes : Original clefs : C1,  C4, F3 Editorial accidentals above the staff Original note values have been halved
T:Madonna, con due lettre
T:©
T:©
T:©
T:©
T:©
C:Jhan Gero
Z:©
%%score [ 1 2 3 ]
L:1/8
Q:1/4=120
M:2/2
K:C
V:1 treble nm="Soprano" snm="S"
V:2 treble-8 nm="Tenor" snm="T"
V:3 bass nm="Bass" snm="B"
V:1
 E4 F4 | E4 A4- | A2 A2 G4 | E4 F4- | F2 E2 D4 | C4 c4 | B2 A2 A2 G2 | A4 G4 | G2 G4 G2 | %9
w: Ma- don-|na, con|_ due let-|tre m'oc-|* ci- de-|te, qual|hor di- te di|non e|in un mo-|
 A4 G2 A2 | G2 E2 G4 | D4 A4 | A3 G F2 E2- | ED D4 C2 | D4 z2 A2 | A2 G2 A2 D2 | F2 G2 E4- | %17
w: men- to, con|al- tre due|voi mi|fa _ re con-|* * ten- *|to, di-|cen- do si, di-|cen- do si,|
 E4 A4 | A2 A2 d4- | d2 c3 BAG | FE A4 G2 | A4 G4- | G4 A4 | G4 c4 | B2 A3 G G2- |"^#" G2 F2 G4- | %26
w: _ e|mi por- get'|_ a- i- * *||ta, dun-|* que|mia mort'|o vi- * *|* * ta,|
 G8 | z2 E2 E2 E2 | A3 G F3 E | D4 F4 | F2 E2 D4 | C3 D E2 F2 | E4 z4 | E4 A2 A2 | G3 F ED F2- | %35
w: _|se dal si|al- * no _|de- pen-|de co- me|ve- * * de-|te,|quan- to cru-|del _ _ _ fa-|
 FE E4 D2 | E8- | E4 C4 | z2 E2 F3 E | D2 C2 D2 F2 | E2 D4 C2 | D4 E4- | E4 C4 | z2 E2 F3 E | %44
w: * * re- *||* te,|s'all in- ten-|so mio mal non|pro- ve- de-||* te,|s'all in- ten-|
 D2 C2 D2 F2 | E2 D4 C2 | D8- | D8- | D8 |] %49
w: so mio mal non|pro- ve- de-|te.|_||
V:2
 c4 d4 | c4 f4- | f2 f2 d4 | c2 c3 BAG | F2 A4 G2 | A4 e4 | d2 c2 B2 B2 | A4 e4 | e2 e4 e2 | %9
w: Ma- don-|na, con|_ due let-|tre m'oc- * * *|* ci- de-|te, qual|hor di- te di|non e'in|un mo- men-|
 f4 e4- | e2 c2 B2 G2 | B4 A4 | A4 A3 G | F2 D2 E4 | D4 d4 | d2 B2 A2 A2 | A2 G2 A2 c2 | %17
w: to, con|_ al- tre due|voi mi|fa- re con-|ten- * *|to, di-|cen- do si, di-|cen- do si, e|
 c2 c3 BAG | FE A4 G2 | ABcd e2 A2 | d3 c B4 | A4 e4- | e4 e4 | e4 c4 | d2 c4 B2 | A4 G4 | %26
w: mi por- * * *|* * get' a-|i- * * * * *||ta, dun-|* que|mia mort'|o vi- *|* ta,|
 B4 B2 B2 | e3 d c3 B | A4 d4 | B2 B2 A3 G | FE A4 G2 | A2 E2 A2 A2 | G2 c2 B2 A2- | A2 G2 F4 | %34
w: se dal si|al- no de- pen-|de, co-|me ve- de- *||te, quan- to cru-|del fa- re- *||
 E2 B2 c2 c2 | B2 G2 A4 | B2 B2 c3 B | A2 G2 A4- | A4 F3 E | FG A4 F2 | G2 A4 G2 | A2 B2 c3 B | %42
w: te, quan- to cru-|del fa- re-|te, s'all in- *|ten- so mio|_ mal _|_ _ _ non|pro- ve- de|te, s'all in- ten-|
 A2 G2 A4- | A8- | A4 F4 | G2 F2 E4 | D4 z2 _B2 | _B2 A2 B4 | A8 |] %49
w: so mio mal|_|* non|pro- ve- de-|te, non|pro- ve- de-|te.|
V:3
 A,4 D,4 | A,4 F,4- | F,2 F,2 G,4 | A,4 F,3 E, | D,2 C,2 B,,4 | A,,6 A,,2 | B,,2 C,2 D,2 E,2 | %7
w: Ma- don-|na, con|_ due let-|tre m'oc- *|* ci- de-|te, qual|hor di- te di|
 A,,4 C4 | C2 C4 C2 |"^#" F,4 C4 | z2 A,2 G,2 E,2 | G,4 D,2 F,2 | F,3 E, D,2 C,2 | D,2 B,,2 A,,4 | %14
w: non e|in un mo-|men- to,|con al- tre|due voi mi|fa- * re con-|ten- * *|
 D,8 | z4 D,4 |"^#" D,2 B,,2 A,,2 A,2 | A,2 A,3 G,F,E, | D,C,B,,A,, B,,4 | A,,3 B,, C,2 D,2- | %20
w: to,|di-|cen- do si, e|mi por- * * *|get' _ _ _ _|a- * * i-|
 D,C, D,2 E,4 | A,,4 C4- | C4 A,4 | C3 B, A,4 | G,2 A,2 F,2 G,2 | D,4 G,4- | G,4 z2 E,2 | %27
w: |ta, dun-|* que|mia _ mort'|o vi- * *|* ta,|_ se|
 E,2 E,2 A,3 G, | F,3 E, D,4 | G,4 F,3 E, | D,2 C,2 B,,4 | A,,4 A,,4 | E,2 E,2 D,2 F,2- | %33
w: dal si al- no|de- pen- de|co- me ve-|de- * *|te, quan-|to gran tort ha-|
 F,E, E,4 D,2 | E,2 E,2 A,2 A,2 | G,2 E,2 F,4 | E,8 | z2 E,2 F,3 E, | D,2 C,2 D,4- | D,2 A,,2 D,4 | %40
w: * * ve- *|te, quan- to gran|tort ha- ve-|te,|s'all in ten-|so mio mal|_ non pro-|
"^#" E,2 F,4 E,2 | D,4 C,4 | z2 E,2 F,3 E, | D,2 C,2 D,4- | D,2 A,,2 D,4 | C,2 D,2 A,,4 | %46
w: ve- de- *|* te,|s'all in- ten-|so mio mal|_ non pro-|ve- * de-|
 D,4 z2 G,2 | G,2 F,2 G,4 | D,8 |] %49
w: te, non|pro- ve- de-|te.|

